X: 0
T: Genevan Psalm CXVII
L: 1/4
M: none
Q: 1/4=416
K: Ab
[V: P1]  A4 F2 E2 A2 A2 B2 d2 (c4 B4) | e4 c2 c2 A2 d2 c4 B4 A4 | A4 G2 F2 A2 A2 B2 d2 (c4 B4) | e4 d2 c2 B2 A2 A2 G2 A4 | e4 e2 d2 c4 B4 A2 G2 (F4 E4) | E4 A2 A2 G2 F2 A4 B4 c4 | A4 A2 B2 c2 A2 d2 d2 (c4 B4) | e4 d2 c2 B2 A2 A2 G2 A4|]

